share/icons/Flat-Remix-Blue-Dark/mimetypes/scalable/text-x-csharp.svg

<svg xmlns="http://www.w3.org/2000/svg" xmlns:xlink="http://www.w3.org/1999/xlink" width="36pt" height="36pt" version="1.1" viewBox="0 0 36 36"> <defs> <clipPath id="clip1"> <path d="M 20 2 L 31 2 L 31 13 L 20 13 Z M 20 2"/> </clipPath> <clipPath id="clip2"> <path d="M 20.515625 2.625 L 30.328125 12.4375 L 22.023438 12.4375 C 21.292969 12.4375 20.515625 11.660156 20.515625 10.929688 Z M 20.515625 2.625"/> </clipPath> <image id="image6" width="36" height="36" xlink:href="data:image/png;base64,iVBORw0KGgoAAAANSUhEUgAAACQAAAAkCAYAAADhAJiYAAAABmJLR0QA/wD/AP+gvaeTAAAAmklEQVRYhe3T0QqCQBBG4aOtYEoUvf9Lildltl00C4tkbBeTIP+BAUEYP1YW1Pcqh53B9kbgaVPcwQF0tAmGSrMZ6AKcDQXw+AUVHEAtcAUaewYYgYmC3+cBCkAPnDJQMcoDVNnebgEqQnmAclTz4d0I3P4JStc9AjXvk4qLWQV53LLeEOl05gw4A3dgcPiuUkoppZRSSqk99gLWvSJpuDnlsAAAAABJRU5ErkJggg=="/> </defs> <g> <path style="fill:rgb(0%,0%,0%)" d="M 7.347656 3.152344 C 6.675781 3.152344 6.042969 3.785156 6.042969 4.457031 L 6.042969 31.847656 C 6.042969 32.480469 6.714844 33.152344 7.347656 33.152344 L 28.21875 33.152344 C 28.851562 33.152344 29.523438 32.480469 29.523438 31.847656 L 29.523438 11.632812 L 21.042969 3.152344 Z M 7.347656 3.152344"/> <path style="fill:rgb(100.000%,100.000%,100.000%)" d="M 27.558594 19.753906 L 25.75 19.753906 L 25.335938 21.6875 L 26.972656 21.6875 L 26.972656 23.101562 L 25.035156 23.101562 L 24.460938 25.742188 L 23.113281 25.742188 L 23.699219 23.101562 L 22.203125 23.101562 L 21.640625 25.742188 L 20.292969 25.742188 L 20.867188 23.101562 L 19.46875 23.101562 L 19.46875 21.6875 L 21.167969 21.6875 L 21.578125 19.753906 L 20.054688 19.753906 L 20.054688 18.425781 L 21.867188 18.425781 L 22.453125 15.714844 L 23.800781 15.714844 L 23.203125 18.425781 L 24.699219 18.425781 L 25.273438 15.714844 L 26.621094 15.714844 L 26.035156 18.425781 L 27.558594 18.425781 L 27.558594 19.753906 M 24 21.6875 L 24.398438 19.753906 L 22.914062 19.753906 L 22.503906 21.6875 L 24 21.6875"/> <g clip-path="url(#clip1)"> <g clip-path="url(#clip2)"> <use xlink:href="#image6"/> </g> </g> <path style="fill:rgb(20.000%,20.000%,20.000%)" d="M 21.042969 3.152344 L 29.523438 11.632812 L 22.347656 11.632812 C 21.714844 11.632812 21.042969 10.960938 21.042969 10.328125 Z M 21.042969 3.152344"/> <path style="fill:rgb(100.000%,100.000%,100.000%)" d="M 8.28125 20.523438 C 8.28125 19.894531 8.414062 19.277344 8.671875 18.667969 C 8.929688 18.046875 9.300781 17.496094 9.785156 17.015625 C 10.28125 16.53125 10.882812 16.140625 11.59375 15.839844 C 12.300781 15.542969 13.113281 15.390625 14.023438 15.390625 C 15.09375 15.390625 16.015625 15.597656 16.792969 16.015625 C 17.582031 16.429688 18.160156 16.972656 18.53125 17.636719 L 16.742188 18.695312 C 16.605469 18.40625 16.429688 18.164062 16.21875 17.972656 C 16.003906 17.769531 15.769531 17.609375 15.507812 17.492188 C 15.261719 17.375 15.003906 17.292969 14.730469 17.246094 C 14.460938 17.1875 14.203125 17.160156 13.957031 17.160156 C 13.402344 17.160156 12.917969 17.261719 12.503906 17.464844 C 12.085938 17.667969 11.738281 17.933594 11.457031 18.261719 C 11.1875 18.578125 10.976562 18.945312 10.832031 19.363281 C 10.695312 19.769531 10.628906 20.175781 10.628906 20.578125 C 10.628906 21.035156 10.707031 21.472656 10.867188 21.898438 C 11.035156 22.3125 11.265625 22.679688 11.558594 23 C 11.863281 23.320312 12.222656 23.574219 12.636719 23.769531 C 13.054688 23.960938 13.511719 24.058594 14.003906 24.058594 C 14.265625 24.058594 14.527344 24.027344 14.800781 23.972656 C 15.070312 23.914062 15.328125 23.820312 15.574219 23.695312 C 15.835938 23.570312 16.070312 23.410156 16.285156 23.21875 C 16.5 23.015625 16.671875 22.773438 16.808594 22.492188 L 18.714844 23.433594 C 18.535156 23.820312 18.273438 24.164062 17.921875 24.464844 C 17.585938 24.753906 17.195312 25 16.757812 25.203125 C 16.320312 25.40625 15.859375 25.5625 15.375 25.667969 C 14.890625 25.773438 14.410156 25.828125 13.9375 25.828125 C 13.105469 25.828125 12.339844 25.671875 11.640625 25.363281 C 10.957031 25.054688 10.359375 24.652344 9.851562 24.160156 C 9.355469 23.65625 8.96875 23.09375 8.6875 22.464844 C 8.417969 21.828125 8.28125 21.179688 8.28125 20.523438"/> </g> </svg>

<svg width="36pt" height="36pt" version="1.1" viewBox="0 0 36 36" xmlns="http://www.w3.org/2000/svg"><defs><filter id="a" x="-.192" y="-.192" width="1.384" height="1.384" color-interpolation-filters="sRGB"><feGaussianBlur stdDeviation="0.67843748"/></filter></defs><path d="m7.3477 3.9022c-0.67188 0-1.3047 0.63281-1.3047 1.3047v27.391c0 0.63281 0.67188 1.3047 1.3047 1.3047h20.871c0.63281 0 1.3047-0.67188 1.3047-1.3047v-20.215l-8.4805-8.4805z" opacity=".3"/><path d="m7.3477 3.1523c-0.67188 0-1.3047 0.63281-1.3047 1.3047v27.391c0 0.63281 0.67188 1.3047 1.3047 1.3047h20.871c0.63281 0 1.3047-0.67188 1.3047-1.3047v-20.215l-8.4805-8.4805z"/><path d="m27.559 19.754h-1.8086l-0.41406 1.9336h1.6367v1.4141h-1.9375l-0.57422 2.6406h-1.3477l0.58594-2.6406h-1.4961l-0.5625 2.6406h-1.3477l0.57422-2.6406h-1.3984v-1.4141h1.6992l0.41016-1.9336h-1.5234v-1.3281h1.8125l0.58594-2.7109h1.3477l-0.59766 2.7109h1.4961l0.57422-2.7109h1.3477l-0.58594 2.7109h1.5234v1.3281m-3.5586 1.9336 0.39844-1.9336h-1.4844l-0.41016 1.9336h1.4961" fill="#fff"/><path d="m20.668 3.5272 8.4805 8.4805h-7.1758c-0.63281 0-1.3047-0.67187-1.3047-1.3047z" filter="url(#a)" opacity=".2"/><path d="m21.043 3.1523 8.4805 8.4805h-7.1758c-0.63281 0-1.3047-0.67187-1.3047-1.3047z" fill="#333"/><path d="m8.2812 20.523c0-0.62891 0.13281-1.2461 0.39062-1.8555 0.25781-0.62109 0.62891-1.1719 1.1133-1.6523 0.49609-0.48438 1.0977-0.875 1.8086-1.1758 0.70703-0.29688 1.5195-0.44922 2.4297-0.44922 1.0703 0 1.9922 0.20703 2.7695 0.625 0.78906 0.41406 1.3672 0.95703 1.7383 1.6211l-1.7891 1.0586c-0.13672-0.28906-0.3125-0.53125-0.52344-0.72266-0.21484-0.20312-0.44922-0.36328-0.71094-0.48047-0.24609-0.11719-0.50391-0.19922-0.77734-0.24609-0.26953-0.058594-0.52734-0.085938-0.77344-0.085938-0.55469 0-1.0391 0.10156-1.4531 0.30469-0.41797 0.20312-0.76562 0.46875-1.0469 0.79688-0.26953 0.31641-0.48047 0.68359-0.625 1.1016-0.13672 0.40625-0.20312 0.8125-0.20312 1.2148 0 0.45703 0.078125 0.89453 0.23828 1.3203 0.16797 0.41406 0.39844 0.78125 0.69141 1.1016 0.30469 0.32031 0.66406 0.57422 1.0781 0.76953 0.41797 0.19141 0.875 0.28906 1.3672 0.28906 0.26172 0 0.52344-0.03125 0.79688-0.085938 0.26953-0.058594 0.52734-0.15234 0.77344-0.27734 0.26172-0.125 0.49609-0.28516 0.71094-0.47656 0.21484-0.20312 0.38672-0.44531 0.52344-0.72656l1.9062 0.94141c-0.17969 0.38672-0.44141 0.73047-0.79297 1.0312-0.33594 0.28906-0.72656 0.53516-1.1641 0.73828s-0.89844 0.35938-1.3828 0.46484-0.96484 0.16016-1.4375 0.16016c-0.83203 0-1.5977-0.15625-2.2969-0.46484-0.68359-0.30859-1.2812-0.71094-1.7891-1.2031-0.49609-0.50391-0.88281-1.0664-1.1641-1.6953-0.26953-0.63672-0.40625-1.2852-0.40625-1.9414" fill="#fff"/></svg>
